X:26
T:Castletown Conners
T:Condon's Frolics
T:Digging for Gold
T:The Thatcher
S:Kilkenny Tavern sessions, London
B:O'Neill's DMI, No. 324 (first title) and No. 100
B:(second title);
B:O'Neill's Waifs & Strays of Gaelic Melody, No. 128
B:(third title);
B:M Mulvihill, 1986, First Collection of Traditional
B:Irish Music, page 66.
N:Castletown Conners is in Co. Limerick. O'Neill got
N:the tune from John Carey (same name and home county
N:as for 'Carey's Dream' in P W Joyce, 1909, No. 236).
N:His 'Digging for Gold' version was from James
N:O'Neill of Co. Down.
Z:ATB
R:jig
M:6/8
L:1/8
K:Edor
BEF G2A|BAG FED|BEF G2A|B2A Bed|
BEF G2A|BAG FEF|DFA dAF|EFE E2A:|]
Bee Bcd|ABG FED|GFG AGA|B2A Bcd|
Bee Bcd|ABG FEF|DFA dAF|[1 EFE E2A:|][2 EFE E3|]
